projects/ccf-eui/src/assets/icons/organ-icons/organ-icon-blood.svg

<svg width="64" height="64" viewBox="0 0 64 64" fill="currentColor" xmlns="http://www.w3.org/2000/svg">
<g clip-path="url(#clip0_1795_181)">
<path d="M21.0717 6.76266C18.2824 4.74371 13.2867 6.86567 9.89373 11.4598C6.50078 16.054 6.02203 21.4104 8.81132 23.4087C11.6006 25.4071 16.5964 23.3263 19.9893 18.7322C23.3823 14.138 23.861 8.78161 21.0717 6.76266ZM18.9693 15.3123C18.8653 15.4565 18.6779 15.5183 18.5114 15.4565C18.5114 15.4565 18.4906 15.4565 18.4698 15.4565C18.3032 15.3329 18.2616 15.1063 18.3865 14.9415C19.3857 13.2522 19.4273 12.1397 19.24 11.9955C19.0526 11.8512 18.4906 11.9543 17.658 12.4899C16.5756 13.2316 15.618 14.1174 14.8062 15.1269C12.7247 17.7639 12.4124 19.9683 12.5789 20.1125C12.7455 20.2567 13.4532 20.1537 14.6605 19.2266C14.8062 19.0824 15.056 19.0824 15.1809 19.2266C15.3266 19.3708 15.3266 19.5974 15.1809 19.7416C13.8071 20.8129 12.5165 20.9777 12.1002 20.6275C11.6839 20.2773 11.6214 19.6592 11.8296 18.8764C12.35 17.3519 13.1618 15.951 14.2234 14.7561C15.0768 13.6436 16.0968 12.6753 17.2208 11.8512C18.6155 10.9654 19.3232 11.1096 19.6979 11.398C20.697 12.2221 19.5522 14.4264 18.9485 15.3329L18.9693 15.3123Z" />
<path d="M34.0811 44.5867L34.1435 44.6073H34.0811V44.5867Z" fill="black"/>
<path d="M50.4006 15.0441C46.2375 10.9238 38.4316 11.9127 32.9988 17.2897C30.5633 19.6177 28.9605 22.6667 28.3777 25.9629C29.5225 26.1895 31.167 26.7664 32.5824 27.5493C32.2702 26.684 32.2286 25.7569 32.4367 24.8504C32.4784 24.6238 32.7282 24.4796 32.9571 24.5208C32.9571 24.5208 32.9779 24.5208 32.9988 24.5208C33.2277 24.5826 33.3526 24.8092 33.2902 25.0359C32.8947 26.1483 33.1653 27.3638 33.9563 28.2291C34.8722 28.9502 36.1211 29.1562 37.2243 28.7235C38.9104 28.2291 40.4091 27.302 41.6164 26.0453C42.8862 24.8504 43.8229 23.3465 44.3225 21.6778C44.7596 20.5859 44.5722 19.3498 43.8229 18.4434C43.3858 18.0519 42.8237 17.8047 42.2409 17.7841C41.9911 17.7635 41.8246 17.5575 41.8454 17.3103C41.8454 17.0837 42.0536 16.8982 42.2825 16.8982C43.0735 16.96 43.8021 17.2897 44.3641 17.8253C45.3424 18.9584 45.6338 20.5447 45.0926 21.9456C44.5514 23.7586 43.5523 25.3861 42.1784 26.7046C40.8462 28.0643 39.2018 29.0532 37.37 29.6094C36.8913 29.733 36.1419 29.7948 35.6423 29.8154C35.6007 29.7948 35.5591 29.733 35.5174 29.7124C37.37 31.3605 37.9529 32.4524 38.6606 34.5744C39.0145 35.6251 39.0145 36.2431 39.0145 36.2431C39.0145 36.2431 43.8021 36.3667 49.3807 30.7219C49.797 30.2893 50.1925 29.8154 50.5255 29.321C53.7519 24.356 53.856 18.464 50.4006 15.0441Z" />
<path d="M26.0671 25.9629C18.5942 24.974 11.9749 28.4351 11.2671 33.6885C10.5594 38.9419 16.0339 44.0305 23.4859 45.0194C30.9587 46.0082 37.5781 42.5472 38.2858 37.2938C38.9936 32.0404 33.5191 26.9518 26.0671 25.9629ZM24.2977 39.0449C19.4893 38.4062 16.0131 35.8929 16.3462 33.4207C16.5335 31.958 18.1571 30.7219 20.6758 30.2274C20.9464 30.1862 21.1962 30.3716 21.2378 30.6189C21.2795 30.8661 21.1129 31.1339 20.8631 31.1751C18.8024 31.5665 17.4286 32.4524 17.2829 33.5237C17.0331 35.3778 20.3219 37.4174 24.4226 37.9736C28.5233 38.5093 32.2285 37.4174 32.4783 35.5426C32.6032 34.698 32.062 33.8533 31.042 33.0704C30.8338 32.9056 30.7714 32.6172 30.9171 32.3906C31.0836 32.1846 31.375 32.1434 31.5832 32.3082C32.7697 32.988 33.4774 34.2653 33.4358 35.6044C33.1027 38.0766 29.0645 39.6629 24.2561 39.0243L24.2977 39.0449Z" />
<path d="M33.2692 44.9987C31.8746 44.4425 31.5623 45.6168 31.4791 45.8228C31.375 46.0494 31.4791 46.5027 32.2493 47.2031C33.2484 48.0478 34.3516 48.7482 35.5381 49.2633C38.6605 50.7672 40.7629 50.4582 40.8669 50.2315C40.971 50.0049 40.7004 49.3251 39.4723 48.3568C39.3266 48.192 39.3266 47.9654 39.4723 47.8006C39.4723 47.8006 39.4931 47.78 39.5139 47.7594C39.6596 47.6357 39.8886 47.6564 40.0135 47.8006C41.3873 48.8924 41.9493 49.9019 41.6371 50.623C41.2832 51.1792 40.6171 51.4676 39.9719 51.3646C38.3274 51.241 36.7246 50.7878 35.2675 50.0461C33.9978 49.4487 32.8321 48.6864 31.7913 47.7594C30.5632 46.6057 30.4383 46.1318 30.7089 45.5138C30.7714 45.3696 31.0836 45.2048 30.9587 45.143C30.8754 45.1018 30.5632 45.2254 30.355 45.2872C29.3559 45.5756 28.8355 45.6168 27.8155 45.7198L26.5458 45.8022C25.5883 48.9336 28.8147 52.8891 33.9978 54.9081C39.3474 56.9889 44.697 56.0824 45.9668 52.8479C46.4663 51.035 45.8002 48.8512 44.5513 47.4297C44.4889 47.3679 44.4056 47.3267 44.3223 47.3473C43.8852 47.4091 42.4489 47.6563 40.6588 47.5327C39.2849 47.4503 36.9328 47.0383 33.6855 45.2254L33.2692 45.0194V44.9987Z" />
<path d="M49.214 31.7932C48.8602 32.1434 47.7153 33.1117 47.7153 33.1117C47.7153 33.1117 50.3589 34.4508 50.2756 37.0672C50.1091 39.56 47.0076 41.6201 43.2191 41.6201H42.5739C40.9294 41.5583 39.3266 41.0639 37.932 40.178H37.8903C37.1826 41.2905 36.2251 42.2588 35.101 43.0416C35.101 43.0416 33.4358 44.0717 33.4358 44.2365C33.4358 44.3601 34.0394 44.6485 34.0394 44.6485C34.6223 44.9576 35.33 45.3078 35.9129 45.6168C37.5573 46.2349 39.4723 46.9559 41.2208 46.9559C42.9694 46.9559 44.7387 46.7087 44.7387 46.7087C51.1083 46.0082 55.9791 42.197 55.9791 37.6234C55.7085 34.3684 53.6686 31.5459 50.6711 30.2274C50.6295 30.2274 50.5671 30.3717 50.3173 30.5983C50.3173 30.5983 49.5887 31.3811 49.1932 31.7726L49.214 31.7932ZM47.07 33.7297C45.9044 34.5538 44.7803 35.316 42.449 36.2431C41.2833 36.7169 39.5556 36.8199 39.1809 36.8199C39.1393 36.8199 39.0976 36.8612 39.0976 36.9024C38.9727 37.7676 38.6605 38.6741 38.3275 39.3951H38.3691C39.618 40.1986 41.1168 40.5694 42.5947 40.6518H43.1983C46.4456 40.6518 49.1932 39.1479 49.3181 37.0878C49.5471 35.7693 48.3398 34.3066 47.0908 33.7297H47.07Z" />
</g>
<defs>
<clipPath id="clip0_1795_181">
<rect width="49" height="50"  transform="translate(7 6)"/>
</clipPath>
</defs>
</svg>

<svg xmlns="http://www.w3.org/2000/svg" width="64" height="64" fill="currentColor" viewBox="0 0 64 64"><g clip-path="url(#a)"><path d="M21.072 6.763c-2.79-2.02-7.785.103-11.178 4.697S6.022 21.41 8.81 23.409c2.79 1.998 7.785-.083 11.178-4.677s3.872-9.95 1.083-11.97m-2.103 8.55c-.104.143-.291.205-.458.143h-.041a.363.363 0 0 1-.083-.514c.999-1.69 1.04-2.802.853-2.947-.187-.144-.75-.04-1.582.495a13.3 13.3 0 0 0-2.852 2.637c-2.081 2.637-2.394 4.841-2.227 4.986.166.144.874.04 2.082-.886.145-.145.395-.145.52 0a.36.36 0 0 1 0 .515c-1.374 1.07-2.664 1.236-3.08.886-.417-.35-.48-.969-.271-1.752a12.1 12.1 0 0 1 2.393-4.12 14.8 14.8 0 0 1 2.998-2.905c1.395-.886 2.102-.741 2.477-.453.999.824-.146 3.028-.75 3.935z"/><path fill="#000" d="m34.081 44.587.063.02h-.063z"/><path d="M50.4 15.044C46.238 10.924 38.433 11.913 33 17.29a15.8 15.8 0 0 0-4.621 8.673c1.145.226 2.789.803 4.204 1.586a4.76 4.76 0 0 1-.145-2.699c.041-.226.291-.37.52-.33H33a.41.41 0 0 1 .291.516c-.395 1.112-.125 2.328.666 3.193a3.34 3.34 0 0 0 3.268.495 9.97 9.97 0 0 0 4.392-2.679 9.9 9.9 0 0 0 2.706-4.367 3.2 3.2 0 0 0-.5-3.235c-.436-.391-.998-.638-1.581-.659a.426.426 0 0 1-.396-.474c0-.226.209-.412.438-.412a3.4 3.4 0 0 1 2.081.927 4.07 4.07 0 0 1 .729 4.12 10.9 10.9 0 0 1-2.915 4.76 11.3 11.3 0 0 1-4.808 2.904c-.479.124-1.228.186-1.728.206-.041-.02-.083-.082-.125-.103 1.853 1.648 2.436 2.74 3.144 4.862.353 1.051.353 1.67.353 1.67s4.788.123 10.367-5.522a10.6 10.6 0 0 0 1.145-1.401c3.226-4.965 3.33-10.857-.125-14.277"/><path d="M26.067 25.963c-7.473-.989-14.092 2.472-14.8 7.725s4.767 10.343 12.219 11.331c7.473.99 14.092-2.472 14.8-7.725s-4.767-10.342-12.219-11.331m-1.77 13.082c-4.808-.639-8.284-3.152-7.95-5.624.186-1.463 1.81-2.7 4.329-3.194.27-.04.52.145.562.392.041.247-.125.515-.375.556-2.06.392-3.434 1.277-3.58 2.349-.25 1.854 3.039 3.893 7.14 4.45 4.1.535 7.805-.557 8.055-2.431.125-.845-.416-1.69-1.436-2.473a.51.51 0 0 1-.125-.68.47.47 0 0 1 .666-.082 3.68 3.68 0 0 1 1.853 3.296c-.333 2.473-4.372 4.059-9.18 3.42zM33.27 44.999c-1.395-.556-1.708.618-1.79.824-.105.226 0 .68.77 1.38.998.845 2.102 1.545 3.288 2.06 3.123 1.504 5.225 1.195 5.329.968.104-.226-.167-.906-1.395-1.874a.41.41 0 0 1 0-.556l.042-.042a.36.36 0 0 1 .5.042c1.373 1.091 1.935 2.1 1.623 2.822a1.67 1.67 0 0 1-1.665.742 12.4 12.4 0 0 1-4.705-1.319 14.5 14.5 0 0 1-3.476-2.287c-1.228-1.153-1.353-1.627-1.082-2.245.062-.144.375-.31.25-.371-.084-.041-.396.082-.604.144-1 .289-1.52.33-2.54.433l-1.27.082c-.957 3.132 2.27 7.087 7.453 9.106 5.35 2.08 10.699 1.174 11.969-2.06.5-1.813-.167-3.997-1.416-5.418-.062-.062-.145-.103-.229-.083-.437.062-1.873.31-3.663.186-1.374-.083-3.726-.495-6.974-2.308l-.416-.206z"/><path d="M49.214 31.793c-.354.35-1.499 1.319-1.499 1.319s2.644 1.339 2.56 3.955c-.166 2.493-3.267 4.553-7.056 4.553h-.645a9.3 9.3 0 0 1-4.642-1.442h-.042c-.707 1.113-1.665 2.08-2.789 2.864 0 0-1.665 1.03-1.665 1.194 0 .124.603.413.603.413.583.309 1.291.659 1.874.968 1.644.618 3.56 1.339 5.308 1.339s3.518-.247 3.518-.247c6.37-.7 11.24-4.512 11.24-9.086-.27-3.255-2.31-6.077-5.308-7.396-.041 0-.104.145-.354.371 0 0-.728.783-1.124 1.175zM47.07 33.73c-1.166.824-2.29 1.586-4.621 2.513-1.166.474-2.893.577-3.268.577-.042 0-.083.041-.083.082-.125.866-.437 1.772-.77 2.493h.041c1.249.804 2.748 1.174 4.226 1.257h.603c3.248 0 5.995-1.504 6.12-3.564.23-1.319-.978-2.781-2.227-3.358z"/></g><defs><clipPath id="a"><path d="M7 6h49v50H7z"/></clipPath></defs></svg>
